!!!OTL: ES LIEGT EIN HAUS IM OBERLAND
!!!ARE: Europa, Mitteleuropa, Deutschland
!!!SCT: E0062B
!!!YEM: Copyright 1995, estate of Helmut Schaffrath.
**kern
*ICvox
*Ivox
*M4/4
*k[b-]
*F:
{4f
=1
4f
4g
4a
4b-
=2
4cc
4cc
4f}
{4g
=3
4a
4dd
4cc
[4f
=4
4.f]
16e
16d
4e
4f
=5
2d
2c
=6
2.r}
{4cc
=7
4cc
4cc
4dd
4cc
=8
4cc
4b-
4a}
{4dd
=9
4cc
4g
4a
4f
=10
4e
4f}
{4g
4a
=11
4a
8g
8f
2g
=12
2.f}
==
!!!AGN: erzaehlendes Volks - Lied, Ritter - Sage, Ballade ?
!!!ONB: ESAC (Essen Associative Code) Database: ERK1
!!!AMT: simple quadruple
!!!AIN: vox
!!!EED: Helmut Schaffrath
!!!EEV: 1.0
*-
